!!!SOCIAL_FUNCTION:	hand game songs
!!!PDT:	1958
!!!OTL: No_36_Hand-Game_Song_(b).krn
!!!REG: Northern California
!!!LANG: Non-Tone
!!!LING_GROUP: Penutian
**kern
*staff1
=1-
=
*clefF4
*k[b-]
*M2/4
8G\L
8G\J
8c\L
8B-\J
=2
8G\L
8G\J
8A\L
8G\J
=3
8F\L
8F\J
8D\
8r
=4
8F\L
8F\J
8G\L
8F\J
=5
8F\L
8F\J
8F\L
16D\Jk
16r
=6
8F\L
8F\J
4F\
=7:|!
=
8F\L
8F\J
8F\
8r
==
*-
